assets/features/channel/southeast-asia/gcash.svg

<svg width="80" height="80" viewBox="0 0 80 80" fill="none" xmlns="http://www.w3.org/2000/svg">
<rect width="80" height="80" rx="8" fill="#007DFE"/>
<path d="M31.5842 24.035C33.6149 23.3723 35.7731 23.0971 37.9095 23.2347C41.0395 23.4042 44.0973 24.5115 46.6449 26.3319C46.9201 26.5332 47.2189 26.7195 47.4538 26.9795C47.8583 27.4409 48.0194 28.0953 47.875 28.6942C47.729 29.3419 47.2205 29.8905 46.5895 30.0851C45.9753 30.2797 45.2704 30.1506 44.7787 29.7378C42.8789 28.2748 40.5645 27.352 38.1797 27.1255C37.307 27.0282 36.4159 27.0282 35.5432 27.1255C33.0275 27.3755 30.594 28.3872 28.6371 29.9962C26.4285 31.7998 24.8191 34.3383 24.1897 37.1201C23.6074 39.6435 23.7853 42.3431 24.7234 44.7608C25.7102 47.3311 27.5463 49.5559 29.8589 51.0424C31.5892 52.1497 33.588 52.8376 35.6254 53.0306C36.4175 53.1279 37.2265 53.1279 38.0119 53.039C40.4789 52.8293 42.8638 51.883 44.8223 50.3713C45.3157 49.9837 46.0189 49.8696 46.618 50.0726C47.4437 50.3562 48.0328 51.237 47.9288 52.1095C47.8801 52.6195 47.6132 53.1044 47.2088 53.4114C45.6564 54.6245 43.8925 55.554 42.0162 56.153C39.5979 56.9298 36.9932 57.1311 34.4792 56.7838C31.6882 56.3962 29.003 55.2805 26.7558 53.5826C24.5724 51.9501 22.7934 49.774 21.6203 47.3076C20.4724 44.89 19.9135 42.1904 20.0109 39.5126C20.0998 36.2225 21.1924 32.9709 23.1173 30.2948C25.1883 27.3839 28.189 25.144 31.5925 24.0367L31.5842 24.035Z" fill="#022DB8" stroke="#007CFF" stroke-width="0.03" stroke-miterlimit="1.09"/>
<path d="M55.2495 28.6272C56.0903 28.3772 57.0771 28.7732 57.4816 29.5651C59.4233 33.3569 60.2725 37.6906 59.9235 41.9355C59.6801 44.9588 58.8477 47.9436 57.448 50.6348C56.9378 51.5962 55.5717 51.9049 54.6906 51.274C53.8733 50.7489 53.6065 49.5761 54.0915 48.7271C56.7935 43.4237 56.817 36.8501 54.1486 31.5298C53.9052 31.0936 53.776 30.5751 53.8985 30.0819C54.0361 29.394 54.5782 28.8118 55.2495 28.6272Z" fill="#70BAF7" stroke="#6FBAF7" stroke-width="0.03" stroke-miterlimit="1.09"/>
<path d="M31.3256 30.8989C34.7542 28.8286 39.3896 28.8856 42.721 31.1422C43.5467 31.7479 43.7162 33.0415 43.0768 33.8435C42.5028 34.627 41.3129 34.8619 40.4973 34.3367C39.2033 33.5113 37.6341 33.1556 36.1136 33.3334C34.5931 33.4945 33.1381 34.1992 32.069 35.2897C31.0017 36.3484 30.3052 37.7712 30.1357 39.2678C29.9813 40.4808 30.1843 41.7341 30.6861 42.8498C31.3491 44.3213 32.554 45.5427 34.0259 46.2222C35.5296 46.9336 37.2935 47.0477 38.8777 46.5544C40.9974 45.9068 42.7512 44.1535 43.3587 42.026C41.8382 42.0344 40.3177 42.026 38.7972 42.026C38.0688 42.026 37.3656 41.573 37.0669 40.9187C36.6943 40.1671 36.889 39.1889 37.52 38.6386C37.8439 38.3483 38.2719 38.1537 38.7082 38.1369C41.0058 38.1202 43.2933 38.1285 45.5908 38.1285C46.3427 38.1051 47.071 38.5732 47.3698 39.2611C47.6282 39.7946 47.5476 40.4003 47.5158 40.9758C47.3144 43.4656 46.1899 45.8682 44.4093 47.6299C42.7025 49.3446 40.3982 50.4519 37.9883 50.6935C35.6186 50.9519 33.1683 50.3781 31.1544 49.0929C29.1237 47.8077 27.5394 45.8095 26.7624 43.5293C25.9702 41.2257 26.0105 38.6453 26.8345 36.3568C27.6435 34.0935 29.2613 32.1355 31.3239 30.8989H31.3256Z" fill="white" stroke="#002CB8" stroke-width="0.03" stroke-miterlimit="1.09"/>
<path d="M49.9929 31.9591C50.8253 31.741 51.7719 32.1689 52.1612 32.9373C54.2641 37.3834 54.2641 42.7691 52.1612 47.2153C51.8944 47.7404 51.3607 48.1297 50.77 48.2253C50.0819 48.3461 49.3468 48.0559 48.9172 47.5056C48.4724 46.9317 48.3919 46.1063 48.7158 45.4603C50.2849 42.0561 50.2598 37.974 48.6755 34.5782C48.1989 33.5346 48.8769 32.2007 49.9946 31.9591H49.9929Z" fill="#70BAF7" stroke="#6FBAF7" stroke-width="0.03" stroke-miterlimit="1.09"/>
</svg>

<svg xmlns="http://www.w3.org/2000/svg" width="80" height="80" fill="none" viewBox="0 0 80 80"><rect width="80" height="80" fill="#007dfe" rx="8"/><path fill="#022db8" stroke="#007cff" stroke-miterlimit="1.09" stroke-width=".03" d="M31.584 24.035a16.9 16.9 0 0 1 6.326-.8c3.13.17 6.187 1.277 8.735 3.097.275.201.574.387.809.648.404.46.565 1.115.421 1.714a1.93 1.93 0 0 1-1.285 1.391 1.95 1.95 0 0 1-1.811-.347 12.9 12.9 0 0 0-6.6-2.613 12 12 0 0 0-2.636 0 12.96 12.96 0 0 0-6.906 2.871c-2.209 1.804-3.818 4.342-4.447 7.124a13.1 13.1 0 0 0 .533 7.64c.987 2.571 2.823 4.796 5.136 6.282a13.04 13.04 0 0 0 5.766 1.989c.792.097 1.602.097 2.387.008a13 13 0 0 0 6.81-2.668 1.95 1.95 0 0 1 1.796-.298c.826.283 1.415 1.164 1.31 2.036-.048.51-.315.995-.72 1.302a16.7 16.7 0 0 1-5.192 2.742c-2.418.777-5.023.978-7.537.63a16.7 16.7 0 0 1-7.723-3.2 17 17 0 0 1-5.136-6.275 16.84 16.84 0 0 1-1.61-7.795 16.65 16.65 0 0 1 3.107-9.218c2.071-2.911 5.072-5.151 8.476-6.258z"/><path fill="#70baf7" stroke="#6fbaf7" stroke-miterlimit="1.09" stroke-width=".03" d="M55.25 28.627c.84-.25 1.827.146 2.232.938a23.13 23.13 0 0 1 2.441 12.37c-.243 3.024-1.075 6.009-2.475 8.7-.51.961-1.876 1.27-2.757.639-.818-.525-1.085-1.698-.6-2.547 2.703-5.303 2.726-11.877.058-17.197-.244-.436-.373-.955-.25-1.448a1.93 1.93 0 0 1 1.35-1.455Z"/><path fill="#fff" stroke="#002cb8" stroke-miterlimit="1.09" stroke-width=".03" d="M31.326 30.899c3.428-2.07 8.064-2.013 11.395.243.826.606.995 1.9.356 2.701-.574.784-1.764 1.019-2.58.494a6.75 6.75 0 0 0-4.383-1.004 6.7 6.7 0 0 0-4.045 1.957 6.7 6.7 0 0 0-1.933 3.978 6.7 6.7 0 0 0 .55 3.582 6.85 6.85 0 0 0 3.34 3.372 6.76 6.76 0 0 0 4.852.332c2.12-.647 3.873-2.4 4.48-4.528-1.52.008-3.04 0-4.56 0a1.944 1.944 0 0 1-1.278-3.387 1.93 1.93 0 0 1 1.188-.502c2.298-.017 4.585-.008 6.883-.008a1.92 1.92 0 0 1 1.779 1.132c.258.534.178 1.14.146 1.715a10.66 10.66 0 0 1-3.107 6.654 10.64 10.64 0 0 1-6.42 3.063c-2.37.259-4.82-.315-6.835-1.6a10.76 10.76 0 0 1-4.392-5.564c-.792-2.303-.751-4.884.072-7.172a10.58 10.58 0 0 1 4.49-5.458z"/><path fill="#70baf7" stroke="#6fbaf7" stroke-miterlimit="1.09" stroke-width=".03" d="M49.993 31.96c.832-.219 1.779.209 2.168.977 2.103 4.446 2.103 9.832 0 14.278a1.93 1.93 0 0 1-1.391 1.01 1.97 1.97 0 0 1-1.853-.72 1.97 1.97 0 0 1-.201-2.045c1.569-3.404 1.544-7.486-.04-10.882-.477-1.043.2-2.377 1.319-2.619z"/></svg>
